svg/u1f235.svg

<svg viewBox="0 0 128 128" xmlns="http://www.w3.org/2000/svg">
  <g>
    <path d="M116,4H12c-4.42,0-8,3.58-8,8v104c0,4.42,3.58,8,8,8h104c4.42,0,8-3.58,8-8V12 C124,7.58,120.42,4,116,4z" fill="#CC3333"/>
    <path d="M109.7,4H11.5C7.37,4.03,4.03,7.37,4,11.5v97.9c-0.01,4.14,3.34,7.49,7.48,7.5c0.01,0,0.01,0,0.02,0 h98.1c4.14,0.01,7.49-3.34,7.5-7.48c0-0.01,0-0.01,0-0.02V11.5c0.09-4.05-3.13-7.41-7.18-7.5C109.85,4,109.77,4,109.7,4z" fill="#F44336"/>
    <path d="M39.7,12.9c0-2.3-1.6-3-10.8-2.7c-7.7,0.3-11.5,1.2-13.8,4s-2.9,8.5-3,15.3c0,4.8,0,9.3,2.5,9.3 c3.4,0,3.4-7.9,6.2-12.3C26.2,17.8,39.7,15.9,39.7,12.9z" fill="#FF8A80"/>
    <g opacity="0.2">
      <path d="M88.3,22c1.05,0,1.9,0.85,1.9,1.9v0v4.8c0,1.05,0.85,1.9,1.9,1.9l0,0h9c1.05,0,1.9,0.85,1.9,1.9 l0,0v3.6c0,1.05-0.85,1.9-1.9,1.9l0,0h-9c-1.05,0-1.9,0.85-1.9,1.9v0v4.8c0,1.05,0.85,1.9,1.9,1.9l0,0h11.6 c1.05,0,1.9,0.85,1.9,1.9v0v3.8c0,1.05-0.85,1.9-1.9,1.9l0,0H80.8c-1.05,0-1.9,0.85-1.9,1.9v0v2.8c0,1.05,0.85,1.9,1.9,1.9l0,0 H101c1.05,0,1.9,0.85,1.9,1.9v0v34.5c0,3.9-0.7,6.1-3.5,7.3c-2.5,1-6.2,1.1-11.8,1.1c-0.91,0.01-1.7-0.62-1.9-1.5 c-0.2-1-0.5-2-0.8-3c-0.33-1,0.22-2.08,1.23-2.41c0.19-0.06,0.38-0.09,0.57-0.09h0.1c3.1,0.1,5.7,0.1,6.6,0.1 c1.2,0,1.6-0.4,1.6-1.5V70.4c0-1.05-0.85-1.9-1.9-1.9l0,0H79.8c-1.05,0-1.9,0.85-1.9,1.9l0,0v12.9c0,1.05,0.85,1.9,1.9,1.9l0,0 h2.4c1.05,0,1.9-0.85,1.9-1.9l0,0v-8.5c0-1.05,0.85-1.9,1.9-1.9h1.5c1.05,0,1.9,0.85,1.9,1.9l0,0v18.6c0,1.05-0.85,1.9-1.9,1.9 l0,0H86c-1.05,0-1.9-0.85-1.9-1.9l0,0l0,0c0-1.05-0.85-1.9-1.9-1.9l0,0H67.5c-1.05,0-1.9,0.85-1.9,1.9l0,0v1.7 c0,1.05-0.85,1.9-1.9,1.9h-1.5c-1.05,0-1.9-0.85-1.9-1.9l0,0V74.8c0-1.05,0.85-1.9,1.9-1.9h0h1.5c1.05,0,1.9,0.85,1.9,1.9v8.5 c0,1.05,0.85,1.9,1.9,1.9l0,0h2c1.05,0,1.9-0.85,1.9-1.9l0,0V70.4c0-1.05-0.85-1.9-1.9-1.9l0,0H57c-1.05,0-1.9,0.85-1.9,1.9l0,0 V104c0,1.05-0.85,1.9-1.9,1.9h0h-3.8c-1.05,0-1.9-0.85-1.9-1.9l0,0V62.9c0-1.05,0.85-1.9,1.9-1.9h0h19.2c1.05,0,1.9-0.85,1.9-1.9 v0v-2.8c0-1.05-0.85-1.9-1.9-1.9l0,0H46.1c-1.05,0-1.9-0.85-1.9-1.9v0v-3.8c0-1.05,0.85-1.9,1.9-1.9h0h11.5 c1.05,0,1.9-0.85,1.9-1.9v0V40c0-1.05-0.85-1.9-1.9-1.9h0H49c-1.05,0-1.9-0.85-1.9-1.9v0v-3.6c0-1.05,0.85-1.9,1.9-1.9h8.6 c1.05,0,1.9-0.85,1.9-1.9v0V24c0-1.05,0.85-1.9,1.9-1.9l0,0h4.1c1.05,0,1.9,0.85,1.9,1.9v0v4.8c0,1.05,0.85,1.9,1.9,1.9l0,0h10.6 c1.05,0,1.9-0.85,1.9-1.9v0V24c0-1.05,0.85-1.9,1.9-1.9l0,0L88.3,22 M69.5,46.6h10.6c1.05,0,1.9-0.85,1.9-1.9V40 c0-1.05-0.85-1.9-1.9-1.9l0,0H69.5c-1.05,0-1.9,0.85-1.9,1.9v0v4.8c0.01,1.01,0.83,1.81,1.84,1.8C69.46,46.6,69.48,46.6,69.5,46.6 M31.4,23.4c0.28,0.01,0.55,0.07,0.8,0.2c4.58,2.11,8.91,4.72,12.9,7.8c0.79,0.68,0.92,1.86,0.3,2.7l-2.8,3.6 c-0.36,0.46-0.92,0.72-1.5,0.7c-0.45-0.02-0.87-0.19-1.2-0.5c-3.69-3-7.68-5.61-11.9-7.8c-0.93-0.46-1.31-1.59-0.85-2.52 c0.07-0.14,0.15-0.26,0.25-0.38l2.6-3.1C30.3,23.62,30.84,23.35,31.4,23.4 M26.6,47.9c0.24-0.02,0.48,0.02,0.7,0.1 c4.78,1.74,9.37,3.95,13.7,6.6c0.87,0.54,1.14,1.67,0.61,2.55c-0.03,0.05-0.07,0.11-0.11,0.15l-2.7,4 c-0.39,0.49-0.97,0.79-1.6,0.8c-0.41,0.02-0.8-0.12-1.1-0.4c-3.94-2.73-8.16-5.01-12.6-6.8c-1-0.46-1.44-1.65-0.97-2.66 c0.02-0.05,0.05-0.1,0.07-0.14l2.3-3.4C25.34,48.22,25.95,47.93,26.6,47.9 M39.3,71.7c0.43-0.01,0.86,0.13,1.2,0.4l3.6,2.7 c0.72,0.52,0.98,1.49,0.6,2.3c-3.7,8.6-8.2,18-12.3,25.9c-0.31,0.65-0.98,1.05-1.7,1c-0.39-0.01-0.76-0.11-1.1-0.3l-4.3-2.9 c-0.86-0.57-1.13-1.71-0.6-2.6c3.8-6.6,8.8-16.3,12.9-25.4C37.93,72.15,38.58,71.73,39.3,71.7" fill="#424242"/>
    </g>
    <path d="M36.2,61.8c-3.94-2.73-8.16-5.01-12.6-6.8c-1-0.46-1.44-1.65-0.97-2.66 c0.02-0.05,0.05-0.1,0.07-0.14l2.3-3.4c0.53-0.72,1.46-1,2.3-0.7c4.78,1.74,9.37,3.95,13.7,6.6c0.87,0.54,1.14,1.67,0.61,2.55 c-0.03,0.05-0.07,0.11-0.11,0.15l-2.7,4C38.19,62.23,37.03,62.41,36.2,61.8C36.2,61.8,36.2,61.8,36.2,61.8z M24.7,98.3 c4.69-8.25,8.96-16.72,12.8-25.4c0.48-0.99,1.68-1.41,2.67-0.93c0.08,0.04,0.16,0.08,0.23,0.13l3.6,2.7 c0.72,0.52,0.98,1.49,0.6,2.3c-3.7,8.6-8.2,18-12.3,25.9c-0.55,0.96-1.77,1.29-2.73,0.74c-0.02-0.01-0.05-0.03-0.07-0.04l-4.3-2.9 C24.45,100.19,24.25,99.15,24.7,98.3z M39.8,37.9c-3.69-3-7.68-5.61-11.9-7.8c-0.93-0.46-1.31-1.59-0.85-2.52 c0.07-0.14,0.15-0.26,0.25-0.38l2.6-3.1c0.55-0.69,1.51-0.9,2.3-0.5c4.58,2.11,8.91,4.72,12.9,7.8c0.79,0.68,0.92,1.86,0.3,2.7 l-2.8,3.6C41.85,38.46,40.65,38.54,39.8,37.9z M78.8,56.3v2.8c0,1.05,0.85,1.9,1.9,1.9H101c1.05,0,1.9,0.85,1.9,1.9v0v34.5 c0,3.9-0.7,6.1-3.5,7.3c-2.5,1-6.2,1.1-11.8,1.1c-0.91,0.01-1.7-0.62-1.9-1.5c-0.2-1-0.5-2-0.8-3c-0.35-0.97,0.15-2.04,1.12-2.39 c0.25-0.09,0.51-0.13,0.78-0.11c3.1,0.1,5.7,0.1,6.6,0.1c1.2,0,1.6-0.4,1.6-1.5v-27c0-1.05-0.85-1.9-1.9-1.9l0,0H79.8 c-1.05,0-1.9,0.85-1.9,1.9l0,0v12.9c0,1.05,0.85,1.9,1.9,1.9l0,0h2.4c1.05,0,1.9-0.85,1.9-1.9l0,0v-8.5c0-1.05,0.85-1.9,1.9-1.9 h1.5c1.05,0,1.9,0.85,1.9,1.9l0,0v18.6c0,1.05-0.85,1.9-1.9,1.9l0,0H86c-1.05,0-1.9-0.85-1.9-1.9l0,0l0,0c0-1.05-0.85-1.9-1.9-1.9 l0,0H67.5c-1.05,0-1.9,0.85-1.9,1.9l0,0v1.7c0,1.05-0.85,1.9-1.9,1.9h-1.5c-1.05,0-1.9-0.85-1.9-1.9l0,0V74.8 c0-1.05,0.85-1.9,1.9-1.9h0h1.5c1.05,0,1.9,0.85,1.9,1.9v8.5c0,1.05,0.85,1.9,1.9,1.9l0,0h2c1.05,0,1.9-0.85,1.9-1.9l0,0V70.4 c0-1.05-0.85-1.9-1.9-1.9l0,0H57c-1.05,0-1.9,0.85-1.9,1.9l0,0V104c0,1.05-0.85,1.9-1.9,1.9h0h-3.8c-1.05,0-1.9-0.85-1.9-1.9l0,0 V62.9c0-1.05,0.85-1.9,1.9-1.9h0h19.2c1.05,0,1.9-0.85,1.9-1.9v0v-2.8c0-1.05-0.85-1.9-1.9-1.9l0,0H46.1c-1.05,0-1.9-0.85-1.9-1.9 v0v-3.8c0-1.05,0.85-1.9,1.9-1.9h0h11.5c1.05,0,1.9-0.85,1.9-1.9v0V40c0-1.05-0.85-1.9-1.9-1.9h0H49c-1.05,0-1.9-0.85-1.9-1.9v0 v-3.6c0-1.05,0.85-1.9,1.9-1.9h8.6c1.05,0,1.9-0.85,1.9-1.9v0V24c0-1.05,0.85-1.9,1.9-1.9l0,0h4.1c1.05,0,1.9,0.85,1.9,1.9v0v4.8 c0,1.05,0.85,1.9,1.9,1.9l0,0h10.6c1.05,0,1.9-0.85,1.9-1.9v0V24c0-1.05,0.85-1.9,1.9-1.9l0,0H88c1.05,0,1.9,0.85,1.9,1.9v0v4.8 c0,1.05,0.85,1.9,1.9,1.9l0,0h9c1.05,0,1.9,0.85,1.9,1.9l0,0v3.6c0,1.05-0.85,1.9-1.9,1.9l0,0h-9c-1.05,0-1.9,0.85-1.9,1.9v0v4.8 c0,1.05,0.85,1.9,1.9,1.9l0,0h11.6c1.05,0,1.9,0.85,1.9,1.9v0v3.8c0,1.05-0.85,1.9-1.9,1.9l0,0H80.7 C79.63,54.35,78.8,55.23,78.8,56.3z M69.5,46.6h10.6c1.05,0,1.9-0.85,1.9-1.9v0v-4.8c0-1.05-0.85-1.9-1.9-1.9l0,0H69.5 c-1.05,0-1.9,0.85-1.9,1.9v0v4.8c-0.03,1.02,0.76,1.87,1.78,1.9C69.42,46.6,69.46,46.6,69.5,46.6z" fill="#FAFAFA"/>
  </g>
</svg>

<svg viewBox="0 0 128 128" xmlns="http://www.w3.org/2000/svg">
  <defs/>
  <path d="M116,4 L12,4 C7.58,4 4,7.58 4,12 L4,116 C4,120.42 7.58,124 12,124 L116,124 C120.42,124 124,120.42 124,116 L124,12 C124,7.58 120.42,4 116,4 Z" fill="#CC3333"/>
  <path d="M109.7,4 L11.5,4 C7.37,4.03 4.03,7.37 4,11.5 L4,109.4 C3.99,113.54 7.34,116.89 11.48,116.9 C11.49,116.9 11.49,116.9 11.5,116.9 L109.6,116.9 C113.74,116.91 117.09,113.56 117.1,109.42 C117.1,109.41 117.1,109.41 117.1,109.4 L117.1,11.5 C117.19,7.45 113.97,4.09 109.92,4 C109.85,4 109.77,4 109.7,4 Z" fill="#F44336"/>
  <path d="M39.7,12.9 C39.7,10.6 38.1,9.9 28.9,10.2 C21.2,10.5 17.4,11.4 15.1,14.2 C12.8,17 12.2,22.7 12.1,29.5 C12.1,34.3 12.1,38.8 14.6,38.8 C18,38.8 18,30.9 20.8,26.5 C26.2,17.8 39.7,15.9 39.7,12.9 Z" fill="#FF8A80"/>
  <path d="M88.3,22 C89.35,22 90.2,22.85 90.2,23.9 L90.2,23.9 L90.2,28.7 C90.2,29.75 91.05,30.6 92.1,30.6 L92.1,30.6 L101.1,30.6 C102.15,30.6 103,31.45 103,32.5 L103,32.5 L103,36.1 C103,37.15 102.15,38 101.1,38 L101.1,38 L92.1,38 C91.05,38 90.2,38.85 90.2,39.9 L90.2,39.9 L90.2,44.7 C90.2,45.75 91.05,46.6 92.1,46.6 L92.1,46.6 L103.7,46.6 C104.75,46.6 105.6,47.45 105.6,48.5 L105.6,48.5 L105.6,52.3 C105.6,53.35 104.75,54.2 103.7,54.2 L103.7,54.2 L80.8,54.2 C79.75,54.2 78.9,55.05 78.9,56.1 L78.9,56.1 L78.9,58.9 C78.9,59.95 79.75,60.8 80.8,60.8 L80.8,60.8 L101,60.8 C102.05,60.8 102.9,61.65 102.9,62.7 L102.9,62.7 L102.9,97.2 C102.9,101.1 102.2,103.3 99.4,104.5 C96.9,105.5 93.2,105.6 87.6,105.6 C86.69,105.61 85.9,104.98 85.7,104.1 C85.5,103.1 85.2,102.1 84.9,101.1 C84.57,100.1 85.12,99.02 86.13,98.69 C86.32,98.63 86.51,98.6 86.7,98.6 L86.8,98.6 C89.9,98.7 92.5,98.7 93.4,98.7 C94.6,98.7 95,98.3 95,97.2 L95,70.4 C95,69.35 94.15,68.5 93.1,68.5 L93.1,68.5 L79.8,68.5 C78.75,68.5 77.9,69.35 77.9,70.4 L77.9,70.4 L77.9,83.3 C77.9,84.35 78.75,85.2 79.8,85.2 L79.8,85.2 L82.2,85.2 C83.25,85.2 84.1,84.35 84.1,83.3 L84.1,83.3 L84.1,74.8 C84.1,73.75 84.95,72.9 86,72.9 L87.5,72.9 C88.55,72.9 89.4,73.75 89.4,74.8 L89.4,74.8 L89.4,93.4 C89.4,94.45 88.55,95.3 87.5,95.3 L87.5,95.3 L86,95.3 C84.95,95.3 84.1,94.45 84.1,93.4 L84.1,93.4 L84.1,93.4 C84.1,92.35 83.25,91.5 82.2,91.5 L82.2,91.5 L67.5,91.5 C66.45,91.5 65.6,92.35 65.6,93.4 L65.6,93.4 L65.6,95.1 C65.6,96.15 64.75,97 63.7,97 L62.2,97 C61.15,97 60.3,96.15 60.3,95.1 L60.3,95.1 L60.3,74.8 C60.3,73.75 61.15,72.9 62.2,72.9 L62.2,72.9 L63.7,72.9 C64.75,72.9 65.6,73.75 65.6,74.8 L65.6,83.3 C65.6,84.35 66.45,85.2 67.5,85.2 L67.5,85.2 L69.5,85.2 C70.55,85.2 71.4,84.35 71.4,83.3 L71.4,83.3 L71.4,70.4 C71.4,69.35 70.55,68.5 69.5,68.5 L69.5,68.5 L57,68.5 C55.95,68.5 55.1,69.35 55.1,70.4 L55.1,70.4 L55.1,104 C55.1,105.05 54.25,105.9 53.2,105.9 L53.2,105.9 L49.4,105.9 C48.35,105.9 47.5,105.05 47.5,104 L47.5,104 L47.5,62.9 C47.5,61.85 48.35,61 49.4,61 L49.4,61 L68.6,61 C69.65,61 70.5,60.15 70.5,59.1 L70.5,59.1 L70.5,56.3 C70.5,55.25 69.65,54.4 68.6,54.4 L68.6,54.4 L46.1,54.4 C45.05,54.4 44.2,53.55 44.2,52.5 L44.2,52.5 L44.2,48.7 C44.2,47.65 45.05,46.8 46.1,46.8 L46.1,46.8 L57.6,46.8 C58.65,46.8 59.5,45.95 59.5,44.9 L59.5,44.9 L59.5,40 C59.5,38.95 58.65,38.1 57.6,38.1 L57.6,38.1 L49,38.1 C47.95,38.1 47.1,37.25 47.1,36.2 L47.1,36.2 L47.1,32.6 C47.1,31.55 47.95,30.7 49,30.7 L57.6,30.7 C58.65,30.7 59.5,29.85 59.5,28.8 L59.5,28.8 L59.5,24 C59.5,22.95 60.35,22.1 61.4,22.1 L61.4,22.1 L65.5,22.1 C66.55,22.1 67.4,22.95 67.4,24 L67.4,24 L67.4,28.8 C67.4,29.85 68.25,30.7 69.3,30.7 L69.3,30.7 L79.9,30.7 C80.95,30.7 81.8,29.85 81.8,28.8 L81.8,28.8 L81.8,24 C81.8,22.95 82.65,22.1 83.7,22.1 L83.7,22.1 L88.3,22 M69.5,46.6 L80.1,46.6 C81.15,46.6 82,45.75 82,44.7 L82,40 C82,38.95 81.15,38.1 80.1,38.1 L80.1,38.1 L69.5,38.1 C68.45,38.1 67.6,38.95 67.6,40 L67.6,40 L67.6,44.8 C67.61,45.81 68.43,46.61 69.44,46.6 C69.46,46.6 69.48,46.6 69.5,46.6 M31.4,23.4 C31.68,23.41 31.95,23.47 32.2,23.6 C36.78,25.71 41.11,28.32 45.1,31.4 C45.89,32.08 46.02,33.26 45.4,34.1 L42.6,37.7 C42.24,38.16 41.68,38.42 41.1,38.4 C40.65,38.38 40.23,38.21 39.9,37.9 C36.21,34.9 32.22,32.29 28,30.1 C27.07,29.64 26.69,28.51 27.15,27.58 C27.22,27.44 27.3,27.32 27.4,27.2 L30,24.1 C30.3,23.62 30.84,23.35 31.4,23.4 M26.6,47.9 C26.84,47.88 27.08,47.92 27.3,48 C32.08,49.74 36.67,51.95 41,54.6 C41.87,55.14 42.14,56.27 41.61,57.15 C41.58,57.2 41.54,57.26 41.5,57.3 L38.8,61.3 C38.41,61.79 37.83,62.09 37.2,62.1 C36.79,62.12 36.4,61.98 36.1,61.7 C32.16,58.97 27.94,56.69 23.5,54.9 C22.5,54.44 22.06,53.25 22.53,52.24 C22.55,52.19 22.58,52.14 22.6,52.1 L24.9,48.7 C25.34,48.22 25.95,47.93 26.6,47.9 M39.3,71.7 C39.73,71.69 40.16,71.83 40.5,72.1 L44.1,74.8 C44.82,75.32 45.08,76.29 44.7,77.1 C41,85.7 36.5,95.1 32.4,103 C32.09,103.65 31.42,104.05 30.7,104 C30.31,103.99 29.94,103.89 29.6,103.7 L25.3,100.8 C24.44,100.23 24.17,99.09 24.7,98.2 C28.5,91.6 33.5,81.9 37.6,72.8 C37.93,72.15 38.58,71.73 39.3,71.7" fill="#424242" opacity="0.2"/>
  <path d="M36.2,61.8 C32.26,59.07 28.04,56.79 23.6,55 C22.6,54.54 22.16,53.35 22.63,52.34 C22.65,52.29 22.68,52.24 22.7,52.2 L25,48.8 C25.53,48.08 26.46,47.8 27.3,48.1 C32.08,49.84 36.67,52.05 41,54.7 C41.87,55.24 42.14,56.37 41.61,57.25 C41.58,57.3 41.54,57.36 41.5,57.4 L38.8,61.4 C38.19,62.23 37.03,62.41 36.2,61.8 C36.2,61.8 36.2,61.8 36.2,61.8 Z M24.7,98.3 C29.39,90.05 33.66,81.58 37.5,72.9 C37.98,71.91 39.18,71.49 40.17,71.97 C40.25,72.01 40.33,72.05 40.4,72.1 L44,74.8 C44.72,75.32 44.98,76.29 44.6,77.1 C40.9,85.7 36.4,95.1 32.3,103 C31.75,103.96 30.53,104.29 29.57,103.74 C29.55,103.73 29.52,103.71 29.5,103.7 L25.2,100.8 C24.45,100.19 24.25,99.15 24.7,98.3 Z M39.8,37.9 C36.11,34.9 32.12,32.29 27.9,30.1 C26.97,29.64 26.59,28.51 27.05,27.58 C27.12,27.44 27.2,27.32 27.3,27.2 L29.9,24.1 C30.45,23.41 31.41,23.2 32.2,23.6 C36.78,25.71 41.11,28.32 45.1,31.4 C45.89,32.08 46.02,33.26 45.4,34.1 L42.6,37.7 C41.85,38.46 40.65,38.54 39.8,37.9 Z M78.8,56.3 L78.8,59.1 C78.8,60.15 79.65,61 80.7,61 L101,61 C102.05,61 102.9,61.85 102.9,62.9 L102.9,62.9 L102.9,97.4 C102.9,101.3 102.2,103.5 99.4,104.7 C96.9,105.7 93.2,105.8 87.6,105.8 C86.69,105.81 85.9,105.18 85.7,104.3 C85.5,103.3 85.2,102.3 84.9,101.3 C84.55,100.33 85.05,99.26 86.02,98.91 C86.27,98.82 86.53,98.78 86.8,98.8 C89.9,98.9 92.5,98.9 93.4,98.9 C94.6,98.9 95,98.5 95,97.4 L95,70.4 C95,69.35 94.15,68.5 93.1,68.5 L93.1,68.5 L79.8,68.5 C78.75,68.5 77.9,69.35 77.9,70.4 L77.9,70.4 L77.9,83.3 C77.9,84.35 78.75,85.2 79.8,85.2 L79.8,85.2 L82.2,85.2 C83.25,85.2 84.1,84.35 84.1,83.3 L84.1,83.3 L84.1,74.8 C84.1,73.75 84.95,72.9 86,72.9 L87.5,72.9 C88.55,72.9 89.4,73.75 89.4,74.8 L89.4,74.8 L89.4,93.4 C89.4,94.45 88.55,95.3 87.5,95.3 L87.5,95.3 L86,95.3 C84.95,95.3 84.1,94.45 84.1,93.4 L84.1,93.4 L84.1,93.4 C84.1,92.35 83.25,91.5 82.2,91.5 L82.2,91.5 L67.5,91.5 C66.45,91.5 65.6,92.35 65.6,93.4 L65.6,93.4 L65.6,95.1 C65.6,96.15 64.75,97 63.7,97 L62.2,97 C61.15,97 60.3,96.15 60.3,95.1 L60.3,95.1 L60.3,74.8 C60.3,73.75 61.15,72.9 62.2,72.9 L62.2,72.9 L63.7,72.9 C64.75,72.9 65.6,73.75 65.6,74.8 L65.6,83.3 C65.6,84.35 66.45,85.2 67.5,85.2 L67.5,85.2 L69.5,85.2 C70.55,85.2 71.4,84.35 71.4,83.3 L71.4,83.3 L71.4,70.4 C71.4,69.35 70.55,68.5 69.5,68.5 L69.5,68.5 L57,68.5 C55.95,68.5 55.1,69.35 55.1,70.4 L55.1,70.4 L55.1,104 C55.1,105.05 54.25,105.9 53.2,105.9 L53.2,105.9 L49.4,105.9 C48.35,105.9 47.5,105.05 47.5,104 L47.5,104 L47.5,62.9 C47.5,61.85 48.35,61 49.4,61 L49.4,61 L68.6,61 C69.65,61 70.5,60.15 70.5,59.1 L70.5,59.1 L70.5,56.3 C70.5,55.25 69.65,54.4 68.6,54.4 L68.6,54.4 L46.1,54.4 C45.05,54.4 44.2,53.55 44.2,52.5 L44.2,52.5 L44.2,48.7 C44.2,47.65 45.05,46.8 46.1,46.8 L46.1,46.8 L57.6,46.8 C58.65,46.8 59.5,45.95 59.5,44.9 L59.5,44.9 L59.5,40 C59.5,38.95 58.65,38.1 57.6,38.1 L57.6,38.1 L49,38.1 C47.95,38.1 47.1,37.25 47.1,36.2 L47.1,36.2 L47.1,32.6 C47.1,31.55 47.95,30.7 49,30.7 L57.6,30.7 C58.65,30.7 59.5,29.85 59.5,28.8 L59.5,28.8 L59.5,24 C59.5,22.95 60.35,22.1 61.4,22.1 L61.4,22.1 L65.5,22.1 C66.55,22.1 67.4,22.95 67.4,24 L67.4,24 L67.4,28.8 C67.4,29.85 68.25,30.7 69.3,30.7 L69.3,30.7 L79.9,30.7 C80.95,30.7 81.8,29.85 81.8,28.8 L81.8,28.8 L81.8,24 C81.8,22.95 82.65,22.1 83.7,22.1 L83.7,22.1 L88,22.1 C89.05,22.1 89.9,22.95 89.9,24 L89.9,24 L89.9,28.8 C89.9,29.85 90.75,30.7 91.8,30.7 L91.8,30.7 L100.8,30.7 C101.85,30.7 102.7,31.55 102.7,32.6 L102.7,32.6 L102.7,36.2 C102.7,37.25 101.85,38.1 100.8,38.1 L100.8,38.1 L91.8,38.1 C90.75,38.1 89.9,38.95 89.9,40 L89.9,40 L89.9,44.8 C89.9,45.85 90.75,46.7 91.8,46.7 L91.8,46.7 L103.4,46.7 C104.45,46.7 105.3,47.55 105.3,48.6 L105.3,48.6 L105.3,52.4 C105.3,53.45 104.45,54.3 103.4,54.3 L103.4,54.3 L80.7,54.3 C79.63,54.35 78.8,55.23 78.8,56.3 Z M69.5,46.6 L80.1,46.6 C81.15,46.6 82,45.75 82,44.7 L82,44.7 L82,39.9 C82,38.85 81.15,38 80.1,38 L80.1,38 L69.5,38 C68.45,38 67.6,38.85 67.6,39.9 L67.6,39.9 L67.6,44.7 C67.57,45.72 68.36,46.57 69.38,46.6 C69.42,46.6 69.46,46.6 69.5,46.6 Z" fill="#FAFAFA"/>
</svg>
